X: 14963
T: Geese In The Bog, The
R: jig
M: 6/8
K: Aminor
B|:cEE GEE|cEE GAB|cEE GED|EAA A2B|
cEE GEE|cEE GAB|cBA BAG|EAA A2B:|
|:cde ~g3|eaa ged|cde ged|eaa age|
cde ~g3|eaa ged|cBA BAG|EAA A2B:|

